X:150
T:The Rising of the Moon
M:2/4
L:1/8
K:D
DE|FF FF|F<A A>F|FE E>E|E2 A>A|BG d>c|BA FD|ED DE|D2 :|
